X: 316
U:~=!turn!
M:C
L:1/8
K:E dorian
g | (f>d)Td>f e>c {/d}~c>e | {/c}d>B{/c}d>B A<FF>e | f>dTd>f e>d{/d}c>A | {/c}d>BA>F E/2E/2E Ee | f>dTd>f ec~xce |
{c}d>B{/c}d>B A<FF>A | [1 {/c}d>fc>e B>dA>F | {/c}d>BA>F E/2E/2E E :| [2 (3def "conclusion." (3edc (3dcB (3AGF | (3GAB (3AGF (F<E)E>F ||
|: d3 b affb | afd'b affd' | d3 b affb | adaf feef :|
d/2e/2 | f<dd>f e<cc>e | d<BB>d AF-Fd/2e/2 | f<dd>f e<cc>e | {/c}d>B{/B}A>F FE-Ed/2e/2 |
f<dd>f e<cc>e | dfBd AFFA | (3agf (3edc (3dcB (3AGF | (3DdB (3AGF FEEF |]


